X: 211
T: No_68_Alligator_Dance_Song_(d).krn
N: Derived from No_68_Alligator_Dance_Song_(d).krn
%%abc-version 2.0
%%abcx-abcm2ps-target-version 5.9.1 (29 Sep 2008)
%%abc-creator hum2abc beta
%%abcx-conversion-date 2019/03/15 08:38:45
%%humdrum-veritas 1641988272
%%humdrum-veritas-data 3080788937
%%linebreak <none>
%%barnumbers 0
L: 1/8
M: 2/4
K: G clef=bass
[K:clef=bass][M:2/4]DB,B,2 ]|:  
B,4- | 
B,A,G,2 | 
B,B,A,2 ||  
[M:3/4]!fermata!G,3/E,/E,2z2 ||  
[M:2/4]E,E,E,2 | 
!fermata!G,3/E,/E,2 | 
B,B,A,2 ||  
[M:3/4]G,3/E,/E,2z2 ||  
[M:2/4]E,E,E,2 | 
!fermata!G,3/E,/E,2 | 
B,B,B,2 :|]  
B,2z2 |]  



